svgs/solid/toggle-off.svg

<svg xmlns="http://www.w3.org/2000/svg" viewBox="0 0 576 512"><!-- Font Awesome Pro 6.0.0-alpha2 by @fontawesome - https://fontawesome.com License - https://fontawesome.com/license (Commercial License) --><path d="M192 160C138.938 160 96 202.938 96 256S138.938 352 192 352S288 309.062 288 256S245.062 160 192 160ZM384 64H192C85.999 64 0 150 0 256C0 362 85.999 448 192 448H384C489.999 448 576 362 576 256C576 150 489.999 64 384 64ZM384 384H192C121.42 384 64 326.58 64 256S121.42 128 192 128H384C454.58 128 512 185.42 512 256S454.58 384 384 384Z"/></svg>

<svg xmlns="http://www.w3.org/2000/svg" viewBox="0 0 576 512"><!--! Font Awesome Pro 6.0.0-alpha3 by @fontawesome - https://fontawesome.com License - https://fontawesome.com/license (Commercial License) --><path d="M192 160C138.9 160 96 202.9 96 256s42.94 96 96 96s96-42.94 96-96S245.1 160 192 160zM384 64H192C85.1 64 0 150 0 256c0 106 85.1 192 192 192h192c105.1 0 192-85.1 192-192C576 150 489.1 64 384 64zM384 384H192c-70.58 0-128-57.42-128-128s57.42-128 128-128h192c70.58 0 128 57.42 128 128S454.6 384 384 384z"/></svg>
